!!!!SEGMENT: suisse75.krn
!!!OTL@EN: My little boy My treasure goes over the Sapuener path
!!!OTL@@DE: Mis Bueoeli Mis Schaetzaeli geit ueber Sapuener Staeg
!!!ARE: Europa, Mitteleuropa,Schweiz, Kt. Graubuenden, Chur
!!!SCT: D0089A
!!!YEM: Copyright 1995, estate of Helmut Schaffrath.
**kern
*ICvox
*Ivox
*M6/8
*k[b-e-a-]
*E-:
{8b-
=1
8gL
8a-
8b-J
8ccL
8ee-
8ccJ
=2
4b-
8a-
4f}
{8b-
=3
8gL
8a-
8b-J
8ccL
8ee-
8ccJ
=4
4.b-
4r}
{8g
=5
8fL
8g
8fJ
8e-L
8f
8gJ
=6
8.fL
16g
8fJ
4e-}
{8g
=7
8b-L
8cc
8b-J
8fL
8g
8fJ
=8
4.e-
4r}
==
*-
!!!AGN: Liebes - Lied
!! Inzipit = Variante zum Lied
!!!ONB: ESAC (Essen Associative Code) Database: DVA
!!!AMT: compound duple
!!!AIN: vox
!!!EED: Helmut Schaffrath
!!!EEV: 1.1
